X: 1
T: McGovern's Favourite
M: 4/4
L: 1/8
R: reel
K: Ador
EG |: A2 AB AGED | GABd edBd | eaag egdB | AcBA GEDG |
EAAB AGED | GABd edBd | eaag egdB |1 AcBG A2 cB :|2 AcBG A2 (3efg ||
|: a2 ab agef | gedB GABd | eaaf gedB | AcBA GED2 |
[1 eaab agef | gedB GABd | eaag egdB | AcBG A2 (3efg :|
[2 EAAB AGED | GABd edBd | eaag egdB | AcBG A2 cB ||
